X:93
T: LEBE WOHL ES RUFT DIE STUNDE
N: B0580
O: Europa, Mitteleuropa, Deutschland
R: Staende -, Soldaten - Lied, Abschied
M: 3/4
L: 1/16
K: Eb
G3G | A6G2A2G2 | F4B,4
E3E | D4D4F2G2 | E4z4
G3G | A6G2A2G2 | F4B,4
E3E | D4D4F2G2 | E4z4
(3E2E2E2 | c4A3A(3A2A2c2 | B4G4
(3G2F2G2 | B4A3G(3F2E2F2 | G8
(3E2E2E2 | c4A3A(3A2A2c2 | B4G4
(3G2F2G2 | B4A3G(3F2E2F2 | G8

@@@ Tune index: 2311
